X:5
T:5. Une flûte sur la plage 
Z:Eric Forgeot - http://anamnese.online.fr
M:4/4
L:1/8
Q:1/4=120
K:C 
V:1
K:C treble+8 
%%MIDI program 0
%%staves 1 (2  3 4) 5
z8 | z8 | z8 | z8 | 
z8 | z8 | z8 | z8 | 
|: dB A4 GA | B4 dd B2- | B2 ee c4 | EB A4 A2 :| 
dB A4 GA | B4 dd B2- | B2 eA c4 | EB A4 A2 |] 
V:2
K:C bass 
%%MIDI program 0
D,6 C,2- | C,4 D4- | D2 G,6 | A,8 | 
D,6 C,2- | C,4 D4- | D2 G,6 | A,8 |
|: D,6 C,2- | C,4 D4- | D2 G,6 | A,8 :| 
D,6 C,2- | C,4 D4- | D2 G,6 | A,8 |] 
V:3
%%MIDI program 0
z2 F,6 | E,6 F2- | F4 A,4- | A,2 E,6-| 
E,2 F,6 | E,6 F2- | F4 A,4- | A,2 E,6-| 
|: E,2 F,6 | E,6 F2- | F4 A,4- | A,2 E,6- :| 
E,2 F,6 | E,6 F2- | F4 A,4- | A,2 E,6 |]
V:4
%%MIDI program 0
z4 E4- | E2 F,6 | E6 C2- | C4 F,4- |
F,4 E4- | E2 F,6 | E6 C2- | C4 F,4- |
|: F,4 E4- | E2 F,6 | E6 C2- | C4 F,4-:| 
F,4 E4- | E2 F,6 | E6 C2- | C4 F,4 |] 
V:5
%%MIDI program 0
z8 | z4 D,,4- | D,,2 G,,6 | A,,6 A,,2 | 
z8 | z4 D,,4- | D,,2 G,,6 | A,,6 A,,2 |
|: z8 | z4 D,,4- | D,,2 G,,6 | A,,6 A,,2 :| 
z2 C2 G,2 A,2- | A,4 D,,4-| D,,2 G,,6 | A,,6 A,,2 |]


